UI/POI/SVG/exhibition-center_solid_24px.svg

<svg xmlns="http://www.w3.org/2000/svg" width="24" height="24" viewBox="0 0 24 24"><rect width="24" height="24" style="fill:none"/><path d="M12,2C4,2,2,10,2,10H22S20,2,12,2ZM2,12V22H8V19h8v3h6V12Zm4,5H4V14H6Zm5,0H8V14h3Zm5,0H13V14h3Zm4,0H18V14h2Z"/></svg>

<svg width="24" height="24" viewBox="0 0 24 24" fill="none" xmlns="http://www.w3.org/2000/svg">
<path d="M12 2C4 2 2 10 2 10H22C22 10 20 2 12 2ZM2 12V22H8V19H16V22H22V12H2ZM6 17H4V14H6V17ZM11 17H8V14H11V17ZM16 17H13V14H16V17ZM20 17H18V14H20V17Z" fill="#0F1621"/>
</svg>
